X: 9
T:Morning Star, The
T:Morning Star
M:4/4
F:http://blackrosetheband.googlepages.com/ABCTUNES.ABC May 2009
L:1/8
R:reel
K:G
"G"BGAG EGDE|G2 Bd ed"D"gd|"G"B2 Ac "C"BEED|"D"GBAF G2 dc |
"G"B2 Ac BGED | GABd ed"D"ge | "G"B2 Ac "C"BEED |"D"GBAF G2 z A|
"Em"Bdef gfeg|"D"fedf eBBA|"Em"Bdef gfeg|"D"fddd "Em"e2 z d|
"Em"Bdef gfeg|"D"fedf edBA|"C"Bd(3ddd d3 e|"D"faaf gfed||

